X:2278
T:Svingedans
T:(SvL Skåne 1252)
T:efter Jöns Andersson Ryberg
R:Svingedans
O:Ry, Lövestad, Skåne
B:Svenska Låtar Skåne
M:3/4
L:1/8
K:F
|: (3A^cd A2 (ef) | (3(fe)d d^c ec | (3ddd ^FG A=c | =(3BGB (A2 LA2) :|
[K:Em]|: (3AcB GG GB | (B{cB})A [FD][FD] [FD][FD] | (3AcB GG G[BG] | (B{cB})A ([A2F2] L[A2F2]) | (3efe df af | (3e^ce (d2 Ld2) :|
(:musicend:)
Upptecknad av Nils Andersson direkt efter spelmannen 1889 publicerad i Skånska Melodier. Spelanvisningar korrigerade efter Skånsk Melodier nr 94. 
I denna är första reprisen dessutom på åtta takter före reprisering.
Variant till [[http://www.folkwiki.se/Musik/681|SvL Skåne nr 1299]].


(:music:)
